public/img/happy.svg

<svg width="65" height="68" viewBox="0 0 65 68" fill="none" xmlns="http://www.w3.org/2000/svg">
<path d="M64 32.5C64 49.897 49.897 64 32.5 64C15.103 64 1 49.897 1 32.5C1 15.103 15.103 1 32.5 1C49.897 1 64 15.103 64 32.5Z" stroke="#234cad" stroke-width="2"/>
<path fill-rule="evenodd" clip-rule="evenodd" d="M31 21.4805C31 20.6623 30.2672 20 29.3621 20C28.4569 20 27.6379 20.6623 27.6379 21.4805C27.6379 22.2987 26.9052 23.039 26 23.039C25.0948 23.039 24.2759 22.2987 24.2759 21.4805C24.2759 20.6623 23.5431 20 22.6379 20C21.7328 20 21 20.6623 21 21.4805C21 23.974 23.2414 26 26 26C28.7586 26 31 23.974 31 21.4805Z" fill="#234cad"/>
<path fill-rule="evenodd" clip-rule="evenodd" d="M41.4545 19C39.5 19 38 20.5909 38 22.5455C38 24.5 39.5 26 41.4545 26C43.4091 26 45 24.5 45 22.5455C45 20.5909 43.3636 19 41.4545 19Z" fill="#234cad"/>
<path fill-rule="evenodd" clip-rule="evenodd" d="M41.1646 42.7632C39.9399 44.2864 41.1255 47.1643 43.7368 49.2638C46.3482 51.3633 49.2921 51.8055 50.5168 50.2822C51.7415 48.7589 50.7343 45.9078 48.1229 43.8083C45.5116 41.7089 42.3608 41.2753 41.1646 42.7632Z" fill="#234cad"/>
<path fill-rule="evenodd" clip-rule="evenodd" d="M49.4837 31.4092C47.8858 38.9707 40.9463 44.5306 32.8655 44.5306C25.013 44.5306 18.3018 39.2821 16.4756 31.8095C16.2474 30.9644 15.2886 30.3417 14.3299 30.5641C13.3712 30.7865 12.8233 31.7206 13.0516 32.6546C15.1973 41.6839 23.4151 48 32.9112 48C42.6355 48 51.0359 41.2836 52.9534 32.0319C53.1816 31.0979 52.5425 30.2528 51.6751 30.0304C50.6707 29.8524 49.7119 30.4752 49.4837 31.4092Z" fill="#234cad"/>
</svg>

<svg width="65" height="68" fill="none" xmlns="http://www.w3.org/2000/svg"><path d="M64 32.5C64 49.897 49.897 64 32.5 64S1 49.897 1 32.5 15.103 1 32.5 1 64 15.103 64 32.5z" stroke="#234cad" stroke-width="2"/><path fill-rule="evenodd" clip-rule="evenodd" d="M31 21.48c0-.818-.733-1.48-1.638-1.48-.905 0-1.724.662-1.724 1.48 0 .819-.733 1.559-1.638 1.559-.905 0-1.724-.74-1.724-1.559 0-.818-.733-1.48-1.638-1.48-.905 0-1.638.662-1.638 1.48 0 2.494 2.241 4.52 5 4.52s5-2.026 5-4.52zM41.455 19C39.5 19 38 20.59 38 22.546 38 24.5 39.5 26 41.455 26 43.409 26 45 24.5 45 22.546 45 20.59 43.364 19 41.455 19zM41.165 42.763c-1.225 1.523-.04 4.401 2.572 6.5 2.611 2.1 5.555 2.543 6.78 1.02 1.224-1.524.217-4.375-2.394-6.475-2.611-2.1-5.762-2.533-6.958-1.045z" fill="#234cad"/><path fill-rule="evenodd" clip-rule="evenodd" d="M49.484 31.41c-1.598 7.56-8.538 13.12-16.619 13.12-7.852 0-14.563-5.248-16.39-12.72-.228-.846-1.186-1.468-2.145-1.246a1.706 1.706 0 00-1.278 2.09C15.197 41.685 23.415 48 32.912 48c9.724 0 18.124-6.716 20.041-15.968.229-.934-.41-1.78-1.278-2.002-1.004-.178-1.963.445-2.191 1.38z" fill="#234cad"/></svg>
